X:11
T:Hornpipe. RDO.11
M:4/4
L:1/8
Q:1/2=90
S:Robert D. Owen MS,Indiana,1826.
R:.Hornpipe
O:Indiana,USA
A:New Harmony
Z:vmp.Chris Partington
K:Bb
f>e|d2B2B2d>B|cBAB cdec|babf edcB|A2F2F2fe|!
d2B2B2gf|=e2c2cdec|f=efb afeg|f2f2f2:|!
|:d>e|f3e dbfd|e3d cgec|dfdB gbge|dcBA Bcde|!
f3e dbfd|e3d cgec|f2ge dcBA|B2B2B2:|!
|:d>e|fbd2fece|dfB2cBAB|dBAB GBcd|edcB Acde|!
fbd2fece|dfB2cBAB|dBAB GecA|B2B2B2:|

